X:995
T:Kilnamona barndance
R:Barndance
P:APB Martin Hayes
D:Martin Hayes, Under the Moon
S:Martin Hayes, Under the Moon
Z:Transcription, chords:Mike Long
M:C|
L:1/8
K:F
"F"c>FA>c F>GA>c|"F"c2B2 "Gm"G3A|"Gm"B2G2 d3d|"Gm"d2c2 "F"A4|\
"F"c>FA>c F>GA>c|"F"c2B2 "Gm"G3A|"Gm"B2G2 d2c2|"F"F4 F4:|
|:"F"a4 a>gf>a|"Gm"g4 g>fd>e|"Bb"f3d "F"c2A>c|"Gm"d2g2 "C"g2f>g|\
"F"a4 a>gf>a|"Gm"g4 g>fd>e|"Bb"f3d "F"c2A>c|"Bb"d2f2 "F"f4:|
